packages/astro-components-stencil/src/icons/wifi-lock.svg

<svg xmlns="http://www.w3.org/2000/svg" viewBox="0 0 24 24"><g xmlns="http://www.w3.org/2000/svg" id="wifi-lock" fill-rule="nonzero">
            <path d="M21.31 9.58L24 6c-3.34-2.51-7.5-4-12-4S3.34 3.49 0 6l10.4 13.87c.8 1.07 2.4 1.07 3.2 0l1.9-2.53V14.5c0-2.76 2.24-5 5-5 .28 0 .55.04.81.08zM23 16v-1.5a2.5 2.5 0 00-5 0V16c-.55 0-1 .45-1 1v4c0 .55.45 1 1 1h5c.55 0 1-.45 1-1v-4c0-.55-.45-1-1-1zm-1 0h-3v-1.5c0-.83.67-1.5 1.5-1.5s1.5.67 1.5 1.5V16z"/>
        </g></svg>

<svg width="24" height="24" viewBox="0 0 24 24" fill="none" xmlns="http://www.w3.org/2000/svg">
<path fill-rule="evenodd" clip-rule="evenodd" d="M21.31 9.58L24 6C20.66 3.49 16.5 2 12 2C7.5 2 3.34 3.49 0 6L10.4 19.87C11.2 20.94 12.8 20.94 13.6 19.87L15.5 17.34V14.5C15.5 11.74 17.74 9.5 20.5 9.5C20.78 9.5 21.05 9.54 21.31 9.58ZM23 16V14.5C23 13.12 21.88 12 20.5 12C19.12 12 18 13.12 18 14.5V16C17.45 16 17 16.45 17 17V21C17 21.55 17.45 22 18 22H23C23.55 22 24 21.55 24 21V17C24 16.45 23.55 16 23 16ZM19 16H22V14.5C22 13.67 21.33 13 20.5 13C19.67 13 19 13.67 19 14.5V16Z" fill="black"/>
</svg>
